X:1
T: Mrs. Stewart Nicholson's Strathspey
C:
R:Strathspey
Q: 128
K:Eb
M:4/4
L:1/16
|:B2|G3F E3G CC3 F4|EDCB, B,2CD E3G Be3|G3F E3G CC3 F4|EDCB, C3D E4 E2B2|
G3F E3G CC3 F4|EDCB, B,2CD E3G Be3|G3F E3G CC3 F4|EDCB, C3D E4 E2c2|
B3e e2fg f3c c3f|d3c B2cd efga b3e|B3e e2fg a3c c3f|d3c BcdB e4 E3c|
B3e e2fg f3c c3f|d3c B2cd efga b3e|B3e ce3 B3c GE3|EDCB, C3D E4 E2:|
